X: 316
T: Ljube Ljube
O: Romania
M: 4/4
L: 1/8
K: Cm
Q: 1/4=160
%%MIDI program 110 % Fiddle
"Eb"(3B,CD E>E EE|E2(3B,CD E3F                |\
"Eb"G3A B2 A<A   |"Eb"G<G "Ddim"F<F "Eb"F<E-E2|
(3B,CD E>E EE    |E2(3B,CD E3F                |\
G4 G2 "Ddim"F<F  |E<E D<D "Cm"D<C-C2          |
"Eb"z2EF G4      |G4 "Bb"B2A2                 |"Eb"G2F2 E4|\
z2B,C E4         |E4 G2F2                     |E2D2 "Cm"C4|



